X:118
M:C|
L:1/8
K:C
|:g|e>cg>c B<d d>f|e>cg>c a/g/f/e/ g>a|1 e>cg>c B<d d>a|g>ed>g e<c~c:|2
f>de>c B>cd>f|e>c e/d/c/B/ ~c2C||

